X: 29143
T: Nessa The Mover
R: polka
M: 2/4
K: Eminor
|:E>F GA|Be ed|B c/B/A G|FDDF
E>F GA|Bg ed|1 B/A/G FD|EB,DF:|2 B/A/G FA|BEE z|
|:b>a fa|geed|Beed|efga
[1 b>a fa|geed|B/A/G FA|BEE z:|2 b c'/b/a f|g a/g/fd|e f/e/d B|AGFD|

